X: 42042
T: Waltz For Nobody
R: waltz
M: 3/4
K: Gmajor
DG|:"G"G2DG AB|"Am7"c2 BA D2|"Dm"=F3 G/F/ EC|"Am"A,4 A,B,|"Em"G4A,B,|
"G"B4 DE|g2B2 AE|1 "D" A6:|2 G2 "D"GA "G" Bc||"Bm"d2 dc BA|
"Em"G4 cd|"C" e2 ed ce|"D"a4 fg|aD gf Df|eD dc BA|"C"G2 E2 B,D|
"D" D3 A Bc|"Bm"d2 dc BA|"Em"G4 cd|"C"e2 ed ce|"B7"b4 ga|
"D"aD gf Df|eD dc BA|"C"G2 E2 "D" DG|"G" G4|

